icons/tokens/0xA8B1Cb4ed612ee179BDeA16CCa6Ba596321AE52D/logo.svg

<svg width="32" height="32" viewBox="0 0 32 32" fill="none" xmlns="http://www.w3.org/2000/svg">
<path fill-rule="evenodd" clip-rule="evenodd" d="M32 15.9999C32 13.9059 31.5834 11.8118 30.7821 9.87706C29.9805 7.94234 28.7942 6.16698 27.3136 4.68634C25.833 3.20538 24.0576 2.01946 22.1229 1.21786C20.1882 0.416579 18.0941 -6.10352e-05 16 -6.10352e-05C13.9059 -6.10352e-05 11.8115 0.416579 9.8768 1.21786C7.94208 2.01946 6.16704 3.20538 4.68608 4.68634C3.20544 6.16698 2.0192 7.94234 1.21792 9.87706C0.41632 11.8118 0 13.9059 0 15.9999C0 18.094 0.41632 20.1881 1.21792 22.1228C2.0192 24.0575 3.20544 25.8329 4.68608 27.3139C6.16704 28.7945 7.94208 29.9807 9.8768 30.782C11.8115 31.5833 13.9059 31.9999 16 31.9999C18.0941 31.9999 20.1882 31.5833 22.1229 30.782C24.0576 29.9807 25.833 28.7945 27.3136 27.3139C28.7942 25.8329 29.9805 24.0575 30.7821 22.1228C31.5834 20.1881 32 18.094 32 15.9999Z" fill="white"/>
<path fill-rule="evenodd" clip-rule="evenodd" d="M11.8547 3.38361C13.3453 2.89369 14.9382 2.66969 16.5162 2.73017C18.0944 2.79065 19.6579 3.13593 21.113 3.74393C22.5683 4.35193 23.9152 5.22297 25.0675 6.29753C26.5917 7.71929 27.775 9.49753 28.4848 11.4867C29.1949 13.4761 29.4314 15.6764 29.1574 17.7711C28.8838 19.8659 28.0998 21.8553 26.9139 23.566C25.728 25.2767 24.1398 26.7084 22.2746 27.7004C20.4093 28.6921 18.2662 29.2438 16.1539 29.2758C14.0416 29.3078 11.9597 28.8204 10.095 27.895C8.23073 26.9695 6.58337 25.6063 5.33249 23.9036C4.08161 22.2009 3.22721 20.1587 2.88801 18.0748C2.54881 15.9907 2.72481 13.8646 3.37473 11.8812C3.86593 10.3817 4.62817 8.96409 5.6048 7.73561H4.12033V5.28185H9.93696V10.7135H7.48321V9.22937C6.68321 10.2355 6.05857 11.3967 5.65633 12.6255C5.12417 14.2511 4.98081 15.9951 5.25633 17.6969C5.59873 19.8137 6.58881 21.8649 8.06657 23.4457C9.83425 25.3363 12.2995 26.5542 14.8659 26.8207C17.432 27.0873 20.0992 26.4028 22.2173 24.9286C24.3354 23.4543 25.905 21.1903 26.5421 18.6899C27.1792 16.1894 26.8838 13.4524 25.735 11.142C24.5862 8.83161 22.5837 6.94841 20.1891 5.95897C17.7946 4.96921 15.0077 4.87385 12.6038 5.66361L11.8547 3.38361Z" fill="url(#paint0_linear)"/>
<path fill-rule="evenodd" clip-rule="evenodd" d="M24 16C24 11.5858 20.4142 8 16 8C11.5858 8 8 11.5858 8 16C8 20.4142 11.5858 24 16 24C20.4142 24 24 20.4142 24 16Z" fill="#ADADAD"/>
<path fill-rule="evenodd" clip-rule="evenodd" d="M16 9.39503C19.6445 9.39503 22.6049 12.3555 22.6049 16C22.6049 19.6445 19.6445 22.605 16 22.605C12.3555 22.605 9.39503 19.6445 9.39503 16C9.39503 12.3555 12.3555 9.39503 16 9.39503ZM16 10.0187C19.3003 10.0187 21.9813 12.6997 21.9813 16C21.9813 19.3003 19.3003 21.9813 16 21.9813C12.6997 21.9813 10.0187 19.3003 10.0187 16C10.0187 12.6997 12.6997 10.0187 16 10.0187Z" fill="white"/>
<path fill-rule="evenodd" clip-rule="evenodd" d="M21.9813 16C21.9813 12.6997 19.3003 10.0187 16 10.0187C12.6997 10.0187 10.0187 12.6997 10.0187 16C10.0187 19.3003 12.6997 21.9813 16 21.9813C19.3003 21.9813 21.9813 19.3003 21.9813 16Z" fill="black"/>
<path fill-rule="evenodd" clip-rule="evenodd" d="M18.6373 15.148C18.7562 14.3517 18.1506 13.9242 17.3219 13.6379L17.5907 12.5602L16.9344 12.3966L16.6725 13.4462C16.5002 13.4034 16.323 13.3624 16.1467 13.3226L16.4098 12.2662L15.7544 12.1024L15.4848 13.1805L15.4074 13.1625L15.4073 13.1625C15.2916 13.1356 15.1776 13.1092 15.0661 13.0821L15.067 13.0781L14.1614 12.8522L13.9872 13.5533L13.9881 13.5535L13.9881 13.5535C14.0208 13.561 14.474 13.6653 14.4634 13.672C14.729 13.7382 14.7779 13.9146 14.7699 14.0536L14.0328 17.0077C14.0006 17.0885 13.9179 17.2093 13.732 17.1635C13.7388 17.173 13.3084 17.0588 13.2587 17.0456L13.2587 17.0456L13.255 17.0446L12.929 17.7954L13.7837 18.0086C13.8737 18.0311 13.9628 18.0544 14.0509 18.0775C14.1182 18.095 14.1849 18.1125 14.251 18.1293L13.9795 19.2198L14.6355 19.3834L14.9043 18.3046C15.0835 18.3531 15.257 18.3981 15.4272 18.4398L15.1595 19.5139L15.8158 19.6774L16.0875 18.589C17.2061 18.8011 18.0483 18.7155 18.4027 17.7029C18.688 16.8878 18.388 16.4178 17.799 16.1109C18.2283 16.0126 18.5506 15.7302 18.6373 15.148ZM17.1378 17.2502C16.9513 17.9982 15.7829 17.6898 15.2468 17.5484C15.1981 17.5355 15.1547 17.5241 15.1176 17.5149L15.4778 16.0701C15.5227 16.0813 15.5776 16.0936 15.6399 16.1075L15.6399 16.1075C16.1941 16.2318 17.3278 16.4858 17.1378 17.2502ZM15.7505 15.4361C16.1967 15.5554 17.1709 15.8159 17.3405 15.1363C17.5137 14.4406 16.5673 14.2309 16.1049 14.1285C16.0529 14.1169 16.0071 14.1068 15.9696 14.0974L15.6432 15.408C15.674 15.4157 15.7101 15.4253 15.7505 15.4361Z" fill="white"/>
<defs>
<linearGradient id="paint0_linear" x1="2.04343" y1="13.297" x2="15.2222" y2="29.5764" gradientUnits="userSpaceOnUse">
<stop stop-color="#004CFF"/>
<stop offset="0.252131" stop-color="#00E0FB"/>
<stop offset="0.505709" stop-color="#87FF70"/>
<stop offset="0.755054" stop-color="#F8F500"/>
<stop offset="1" stop-color="#FF1A00"/>
</linearGradient>
</defs>
</svg>

<svg fill="none" viewBox="0 0 32 32"><path fill="#fff" fill-rule="evenodd" d="M32 16c0-2.094-.417-4.188-1.218-6.123a16.058 16.058 0 00-3.468-5.19 16.051 16.051 0 00-5.191-3.47A16.054 16.054 0 0016 0c-2.094 0-4.188.417-6.123 1.218a16.055 16.055 0 00-5.19 3.468 16.05 16.05 0 00-3.47 5.191A16.049 16.049 0 000 16c0 2.094.416 4.188 1.218 6.123a16.056 16.056 0 003.468 5.19 16.055 16.055 0 005.19 3.469A16.056 16.056 0 0016 32c2.094 0 4.188-.417 6.123-1.218a16.051 16.051 0 005.19-3.468 16.063 16.063 0 003.47-5.191A16.054 16.054 0 0032 16z" clip-rule="evenodd"/><path fill="url(#paint0_linear)" fill-rule="evenodd" d="M11.855 3.384a13.267 13.267 0 0113.213 2.914 13.155 13.155 0 013.417 5.189c.71 1.99.946 4.19.672 6.284a13.194 13.194 0 01-2.243 5.795 13.207 13.207 0 01-4.64 4.134 13.622 13.622 0 01-6.12 1.576 13.207 13.207 0 01-6.059-1.381 13.19 13.19 0 01-4.763-3.991 13.662 13.662 0 01-2.444-5.83 13.13 13.13 0 01.487-6.193 13.392 13.392 0 012.23-4.145H4.12V5.282h5.817v5.431H7.483V9.23a10.961 10.961 0 00-1.827 3.397 10.787 10.787 0 00-.4 5.07 11.107 11.107 0 002.81 5.75 10.952 10.952 0 006.8 3.375 11.023 11.023 0 007.351-1.892 10.999 10.999 0 004.325-6.24c.637-2.5.342-5.237-.807-7.547a10.919 10.919 0 00-5.546-5.183c-2.394-.99-5.181-1.085-7.585-.295l-.75-2.28z" clip-rule="evenodd"/><path fill="#ADADAD" fill-rule="evenodd" d="M24 16c0-4.414-3.586-8-8-8s-8 3.586-8 8 3.586 8 8 8 8-3.586 8-8z" clip-rule="evenodd"/><path fill="#fff" fill-rule="evenodd" d="M16 9.395A6.61 6.61 0 0122.605 16 6.61 6.61 0 0116 22.605 6.61 6.61 0 019.395 16 6.61 6.61 0 0116 9.395zm0 .624c3.3 0 5.981 2.68 5.981 5.981 0 3.3-2.68 5.981-5.981 5.981A5.985 5.985 0 0110.019 16c0-3.3 2.68-5.981 5.981-5.981z" clip-rule="evenodd"/><path fill="#000" fill-rule="evenodd" d="M21.981 16c0-3.3-2.68-5.981-5.981-5.981A5.985 5.985 0 0010.019 16c0 3.3 2.68 5.981 5.981 5.981 3.3 0 5.981-2.68 5.981-5.981z" clip-rule="evenodd"/><path fill="#fff" fill-rule="evenodd" d="M18.637 15.148c.12-.796-.486-1.224-1.315-1.51l.269-1.078-.657-.163-.262 1.05a16.767 16.767 0 00-.525-.124l.263-1.057-.656-.164-.27 1.079-.077-.018-.34-.08v-.005l-.906-.226-.174.701h.001c.033.008.486.112.475.119.266.066.315.243.307.382l-.737 2.954c-.032.08-.115.201-.301.155.007.01-.424-.104-.473-.117l-.004-.001-.326.75.855.214c.09.022.179.045.267.069l.2.051-.271 1.09.655.164.27-1.078c.179.048.352.093.522.135l-.268 1.074.657.163.271-1.088c1.12.212 1.961.127 2.316-.886.285-.815-.015-1.285-.604-1.592.43-.098.752-.38.838-.963zm-1.5 2.102c-.186.748-1.354.44-1.89.298a8.82 8.82 0 00-.13-.033l.36-1.445.163.038c.554.124 1.688.378 1.498 1.142zm-1.386-1.814c.446.12 1.42.38 1.59-.3.173-.695-.774-.905-1.236-1.007-.052-.012-.098-.022-.135-.032l-.327 1.311.107.028z" clip-rule="evenodd"/><defs><linearGradient id="paint0_linear" x1="2.043" x2="15.222" y1="13.297" y2="29.576" gradientUnits="userSpaceOnUse"><stop stop-color="#004CFF"/><stop offset=".252" stop-color="#00E0FB"/><stop offset=".506" stop-color="#87FF70"/><stop offset=".755" stop-color="#F8F500"/><stop offset="1" stop-color="#FF1A00"/></linearGradient></defs></svg>
